icons/src/calendar.svg

<!--Generator: Apple Native CoreSVG 341-->
<!DOCTYPE svg  PUBLIC '-//W3C//DTD SVG 1.1//EN'  'http://www.w3.org/Graphics/SVG/1.1/DTD/svg11.dtd'>
<svg version="1.1" viewBox="0 0 19.824 17.998" xmlns="http://www.w3.org/2000/svg">
 <rect width="19.824" height="17.998" opacity="0"/>
 <path d="m3.0664 17.998h13.34c2.0411 0 3.0567-1.0156 3.0567-3.0273v-11.924c0-2.0117-1.0156-3.0273-3.0567-3.0273h-13.34c-2.041 0-3.0664 1.0059-3.0664 3.0273v11.924c0 2.0215 1.0254 3.0273 3.0664 3.0273zm-0.14649-1.5722c-0.86914 0-1.3476-0.459-1.3476-1.3672v-9.209c0-0.89844 0.47851-1.3672 1.3476-1.3672h13.613c0.8691 0 1.3574 0.46875 1.3574 1.3672v9.209c0 0.9082-0.4883 1.3672-1.3574 1.3672zm4.9121-8.4375h0.57617c0.3418 0 0.44922-0.09766 0.44922-0.43945v-0.57617c0-0.3418-0.10742-0.44922-0.44922-0.44922h-0.57617c-0.3418 0-0.45898 0.10742-0.45898 0.44922v0.57617c0 0.34179 0.11718 0.43945 0.45898 0.43945zm3.2422 0h0.5762c0.3418 0 0.459-0.09766 0.459-0.43945v-0.57617c0-0.3418-0.1172-0.44922-0.459-0.44922h-0.5762c-0.3418 0-0.459 0.10742-0.459 0.44922v0.57617c0 0.34179 0.1172 0.43945 0.459 0.43945zm3.2422 0h0.5762c0.3418 0 0.459-0.09766 0.459-0.43945v-0.57617c0-0.3418-0.1172-0.44922-0.459-0.44922h-0.5762c-0.3418 0-0.4492 0.10742-0.4492 0.44922v0.57617c0 0.34179 0.1074 0.43945 0.4492 0.43945zm-9.7266 3.1933h0.56641c0.35156 0 0.45898-0.0976 0.45898-0.4394v-0.5762c0-0.34178-0.10742-0.43944-0.45898-0.43944h-0.56641c-0.35156 0-0.45898 0.09766-0.45898 0.43944v0.5762c0 0.3418 0.10742 0.4394 0.45898 0.4394zm3.2422 0h0.57617c0.3418 0 0.44922-0.0976 0.44922-0.4394v-0.5762c0-0.34178-0.10742-0.43944-0.44922-0.43944h-0.57617c-0.3418 0-0.45898 0.09766-0.45898 0.43944v0.5762c0 0.3418 0.11718 0.4394 0.45898 0.4394zm3.2422 0h0.5762c0.3418 0 0.459-0.0976 0.459-0.4394v-0.5762c0-0.34178-0.1172-0.43944-0.459-0.43944h-0.5762c-0.3418 0-0.459 0.09766-0.459 0.43944v0.5762c0 0.3418 0.1172 0.4394 0.459 0.4394zm3.2422 0h0.5762c0.3418 0 0.459-0.0976 0.459-0.4394v-0.5762c0-0.34178-0.1172-0.43944-0.459-0.43944h-0.5762c-0.3418 0-0.4492 0.09766-0.4492 0.43944v0.5762c0 0.3418 0.1074 0.4394 0.4492 0.4394zm-9.7266 3.2032h0.56641c0.35156 0 0.45898-0.1075 0.45898-0.4493v-0.5761c0-0.3418-0.10742-0.4395-0.45898-0.4395h-0.56641c-0.35156 0-0.45898 0.0977-0.45898 0.4395v0.5761c0 0.3418 0.10742 0.4493 0.45898 0.4493zm3.2422 0h0.57617c0.3418 0 0.44922-0.1075 0.44922-0.4493v-0.5761c0-0.3418-0.10742-0.4395-0.44922-0.4395h-0.57617c-0.3418 0-0.45898 0.0977-0.45898 0.4395v0.5761c0 0.3418 0.11718 0.4493 0.45898 0.4493zm3.2422 0h0.5762c0.3418 0 0.459-0.1075 0.459-0.4493v-0.5761c0-0.3418-0.1172-0.4395-0.459-0.4395h-0.5762c-0.3418 0-0.459 0.0977-0.459 0.4395v0.5761c0 0.3418 0.1172 0.4493 0.459 0.4493z" fill="#fff"/>
</svg>

<?xml version="1.0" encoding="UTF-8"?>
<!--Generator: Apple Native CoreSVG 341-->
<!DOCTYPE svg
PUBLIC "-//W3C//DTD SVG 1.1//EN"
       "http://www.w3.org/Graphics/SVG/1.1/DTD/svg11.dtd">
<svg version="1.1" xmlns="http://www.w3.org/2000/svg" xmlns:xlink="http://www.w3.org/1999/xlink" viewBox="0 0 19.8242 17.998">
 <g>
  <rect height="17.998" opacity="0" width="19.8242" x="0" y="0"/>
  <path d="M3.06641 17.998L16.4062 17.998C18.4473 17.998 19.4629 16.9824 19.4629 14.9707L19.4629 3.04688C19.4629 1.03516 18.4473 0.0195312 16.4062 0.0195312L3.06641 0.0195312C1.02539 0.0195312 0 1.02539 0 3.04688L0 14.9707C0 16.9922 1.02539 17.998 3.06641 17.998ZM2.91992 16.4258C2.05078 16.4258 1.57227 15.9668 1.57227 15.0586L1.57227 5.84961C1.57227 4.95117 2.05078 4.48242 2.91992 4.48242L16.5332 4.48242C17.4023 4.48242 17.8906 4.95117 17.8906 5.84961L17.8906 15.0586C17.8906 15.9668 17.4023 16.4258 16.5332 16.4258ZM7.83203 7.98828L8.4082 7.98828C8.75 7.98828 8.85742 7.89062 8.85742 7.54883L8.85742 6.97266C8.85742 6.63086 8.75 6.52344 8.4082 6.52344L7.83203 6.52344C7.49023 6.52344 7.37305 6.63086 7.37305 6.97266L7.37305 7.54883C7.37305 7.89062 7.49023 7.98828 7.83203 7.98828ZM11.0742 7.98828L11.6504 7.98828C11.9922 7.98828 12.1094 7.89062 12.1094 7.54883L12.1094 6.97266C12.1094 6.63086 11.9922 6.52344 11.6504 6.52344L11.0742 6.52344C10.7324 6.52344 10.6152 6.63086 10.6152 6.97266L10.6152 7.54883C10.6152 7.89062 10.7324 7.98828 11.0742 7.98828ZM14.3164 7.98828L14.8926 7.98828C15.2344 7.98828 15.3516 7.89062 15.3516 7.54883L15.3516 6.97266C15.3516 6.63086 15.2344 6.52344 14.8926 6.52344L14.3164 6.52344C13.9746 6.52344 13.8672 6.63086 13.8672 6.97266L13.8672 7.54883C13.8672 7.89062 13.9746 7.98828 14.3164 7.98828ZM4.58984 11.1816L5.15625 11.1816C5.50781 11.1816 5.61523 11.084 5.61523 10.7422L5.61523 10.166C5.61523 9.82422 5.50781 9.72656 5.15625 9.72656L4.58984 9.72656C4.23828 9.72656 4.13086 9.82422 4.13086 10.166L4.13086 10.7422C4.13086 11.084 4.23828 11.1816 4.58984 11.1816ZM7.83203 11.1816L8.4082 11.1816C8.75 11.1816 8.85742 11.084 8.85742 10.7422L8.85742 10.166C8.85742 9.82422 8.75 9.72656 8.4082 9.72656L7.83203 9.72656C7.49023 9.72656 7.37305 9.82422 7.37305 10.166L7.37305 10.7422C7.37305 11.084 7.49023 11.1816 7.83203 11.1816ZM11.0742 11.1816L11.6504 11.1816C11.9922 11.1816 12.1094 11.084 12.1094 10.7422L12.1094 10.166C12.1094 9.82422 11.9922 9.72656 11.6504 9.72656L11.0742 9.72656C10.7324 9.72656 10.6152 9.82422 10.6152 10.166L10.6152 10.7422C10.6152 11.084 10.7324 11.1816 11.0742 11.1816ZM14.3164 11.1816L14.8926 11.1816C15.2344 11.1816 15.3516 11.084 15.3516 10.7422L15.3516 10.166C15.3516 9.82422 15.2344 9.72656 14.8926 9.72656L14.3164 9.72656C13.9746 9.72656 13.8672 9.82422 13.8672 10.166L13.8672 10.7422C13.8672 11.084 13.9746 11.1816 14.3164 11.1816ZM4.58984 14.3848L5.15625 14.3848C5.50781 14.3848 5.61523 14.2773 5.61523 13.9355L5.61523 13.3594C5.61523 13.0176 5.50781 12.9199 5.15625 12.9199L4.58984 12.9199C4.23828 12.9199 4.13086 13.0176 4.13086 13.3594L4.13086 13.9355C4.13086 14.2773 4.23828 14.3848 4.58984 14.3848ZM7.83203 14.3848L8.4082 14.3848C8.75 14.3848 8.85742 14.2773 8.85742 13.9355L8.85742 13.3594C8.85742 13.0176 8.75 12.9199 8.4082 12.9199L7.83203 12.9199C7.49023 12.9199 7.37305 13.0176 7.37305 13.3594L7.37305 13.9355C7.37305 14.2773 7.49023 14.3848 7.83203 14.3848ZM11.0742 14.3848L11.6504 14.3848C11.9922 14.3848 12.1094 14.2773 12.1094 13.9355L12.1094 13.3594C12.1094 13.0176 11.9922 12.9199 11.6504 12.9199L11.0742 12.9199C10.7324 12.9199 10.6152 13.0176 10.6152 13.3594L10.6152 13.9355C10.6152 14.2773 10.7324 14.3848 11.0742 14.3848Z" fill="white"/>
 </g>
</svg>
